packages/icons/src/components/Logo/assets/dark/joomla.svg

<svg width="20" height="20" viewBox="0 0 20 20" fill="none" xmlns="http://www.w3.org/2000/svg">
<path d="M19.93 2.71138C19.93 1.26224 18.7552 0.0874731 17.3061 0.0874731C15.9829 0.0874731 14.889 1.06707 14.7088 2.34051L14.6823 2.32649C12.5364 1.35865 10.7288 3.0729 10.7288 3.0729L5.9476 7.87756L7.83677 9.69687L11.6851 5.91604C13.4822 4.11893 14.4607 5.33528 14.4607 5.33528C15.8135 6.47811 14.5073 7.83091 14.5073 7.83091L16.4432 9.69687C18.024 7.98948 18.1157 6.49937 17.6351 5.31402C18.9289 5.15202 19.93 4.04899 19.93 2.71138Z" fill="#F9AE41"/>
<path d="M17.6595 14.7788C17.6685 14.762 17.6735 14.7523 17.6735 14.7523C18.6414 12.6063 16.9271 10.7988 16.9271 10.7988L12.1224 6.01743L10.3032 7.90675L14.084 11.755C15.881 13.5521 14.6647 14.5307 14.6647 14.5307C13.5219 15.8835 12.1691 14.5773 12.1691 14.5773L10.3032 16.5131C12.0105 18.0939 13.5007 18.1856 14.6859 17.7051C14.8479 18.9988 15.951 20 17.2886 20C18.7378 20 19.9125 18.8252 19.9125 17.3761C19.9125 16.0529 18.933 14.9591 17.6595 14.7788Z" fill="#EE4035"/>
<path d="M12.1633 10.3031L8.31492 14.0839C6.51781 15.8811 5.53931 14.6648 5.53931 14.6648C4.18651 13.5219 5.49266 12.1691 5.49266 12.1691L3.55692 10.3031C1.97609 12.0104 1.88434 13.5005 2.36479 14.6859C1.07103 14.848 0.0699463 15.9509 0.0699463 17.2886C0.0699463 18.7378 1.24471 19.9125 2.69392 19.9125C4.01712 19.9125 5.11096 18.933 5.29118 17.6596C5.308 17.6685 5.31774 17.6735 5.31774 17.6735C7.46368 18.6416 9.27114 16.9271 9.27114 16.9271L14.0524 12.1223L12.1633 10.3031Z" fill="#4F91CD"/>
<path d="M5.91601 8.245C4.11891 6.44789 5.3351 5.46931 5.3351 5.46931C6.47808 4.11651 7.8308 5.42273 7.8308 5.42273L9.69674 3.48699C7.98944 1.90615 6.49934 1.81448 5.314 2.29493C5.152 1.00109 4.04905 0 2.71121 0C1.26232 0 0.0876396 1.17476 0.0874838 2.62391C0.0874838 3.94719 1.06699 5.04104 2.3405 5.22126C2.33155 5.23808 2.32656 5.24789 2.32656 5.24789C1.3585 7.39368 3.07289 9.20116 3.07289 9.20116L7.87768 13.9825L9.6969 12.0934L5.91601 8.245Z" fill="#7AC043"/>
</svg>

<svg xmlns="http://www.w3.org/2000/svg" width="20" height="20" fill="none" viewBox="0 0 20 20">
    <path fill="#f9ae41" d="M19.93 2.711a2.624 2.624 0 0 0-5.221-.37l-.027-.015c-2.146-.967-3.953.747-3.953.747L5.948 7.878l1.889 1.819 3.848-3.781c1.797-1.797 2.776-.58 2.776-.58 1.352 1.142.046 2.495.046 2.495l1.936 1.866c1.581-1.708 1.673-3.198 1.192-4.383a2.624 2.624 0 0 0 2.295-2.603"/>
    <path fill="#ee4035" d="m17.66 14.779.014-.027c.967-2.146-.747-3.953-.747-3.953l-4.805-4.782-1.819 1.89 3.781 3.848c1.797 1.797.58 2.776.58 2.776-1.142 1.352-2.495.046-2.495.046l-1.866 1.936c1.707 1.58 3.198 1.673 4.383 1.192a2.624 2.624 0 1 0 2.974-2.926"/>
    <path fill="#4f91cd" d="m12.163 10.303-3.848 3.78c-1.797 1.798-2.776.582-2.776.582-1.352-1.143-.046-2.496-.046-2.496l-1.936-1.866c-1.58 1.707-1.673 3.198-1.192 4.383A2.624 2.624 0 1 0 5.29 17.66l.027.014c2.146.968 3.953-.747 3.953-.747l4.781-4.805z"/>
    <path fill="#7ac043" d="M5.916 8.245c-1.797-1.797-.58-2.776-.58-2.776 1.142-1.352 2.495-.046 2.495-.046l1.866-1.936c-1.708-1.58-3.198-1.673-4.383-1.192A2.624 2.624 0 1 0 2.341 5.22l-.014.027c-.968 2.146.746 3.953.746 3.953l4.805 4.781 1.819-1.889z"/>
</svg>
